www/assets/icons/airline_seat_recline_extra.svg

<svg width="24" height="24" viewBox="0 0 24 24" xmlns="http://www.w3.org/2000/svg" fill='currentColor'><path d="M5.35 6.13968C4.45 5.49968 4.23 4.25968 4.86 3.34968C5.49 2.44968 6.74 2.22968 7.65 2.85968C8.55 3.49968 8.77 4.73968 8.14 5.64968C7.5 6.54968 6.26 6.76968 5.35 6.13968ZM16 19.4997H8.93C7.45 19.4997 6.19 18.4197 5.97 16.9597L4 7.49968H2L3.99 17.2597C4.37 19.6997 6.47 21.4997 8.94 21.4997H16V19.4997ZM16.23 15.4997H11.35L10.32 11.3997C11.9 12.2897 13.6 12.9397 15.47 12.6197V10.4897C13.84 10.7997 12.03 10.2197 10.78 9.23968L9.14 7.96968C8.91 7.78968 8.65 7.66968 8.38 7.58968C8.06 7.49968 7.72 7.46968 7.39 7.52968H7.37C6.14 7.74968 5.32 8.91968 5.53 10.1397L6.88 16.0597C7.16 17.4797 8.39 18.4997 9.83 18.4997H16.68L20.5 21.4997L22 19.9997L16.23 15.4997Z"/></svg>

<svg xmlns="http://www.w3.org/2000/svg" width="24" height="24" viewBox="0 0 24 24" fill='currentColor'><path d="M5.35 6.14c-.9-.64-1.12-1.88-.49-2.79.63-.9 1.88-1.12 2.79-.49.9.64 1.12 1.88.49 2.79-.64.9-1.88 1.12-2.79.49M16 19.5H8.93c-1.48 0-2.74-1.08-2.96-2.54L4 7.5H2l1.99 9.76a5.01 5.01 0 0 0 4.95 4.24H16zm.23-4h-4.88l-1.03-4.1c1.58.89 3.28 1.54 5.15 1.22v-2.13c-1.63.31-3.44-.27-4.69-1.25L9.14 7.97c-.23-.18-.49-.3-.76-.38a2.2 2.2 0 0 0-.99-.06h-.02a2.27 2.27 0 0 0-1.84 2.61l1.35 5.92a3.01 3.01 0 0 0 2.95 2.44h6.85l3.82 3L22 20z"/></svg>
